images/ico-bicro-emploi-main.svg

<svg xmlns="http://www.w3.org/2000/svg" width="25" height="25" fill="none" viewBox="0 0 25 25"><g id="marche/main"><g id="Group 33"><path id="Oval" fill="#000638" d="M21.9999 12.8892C21.5078 12.8892 21.1089 13.2881 21.1089 13.7802C21.1089 14.2723 21.5078 14.6712 21.9999 14.6712C22.492 14.6712 22.8909 14.2723 22.8909 13.7802C22.8909 13.2881 22.492 12.8892 21.9999 12.8892Z"/><circle id="Ellipse 7" cx="17.25" cy="7.25" r="6.25" fill="#cce1f8"/><path id="Path 9" fill="#000638" d="M2.99494 8.05722C3.08282 7.8844 3.27686 7.79676 3.46186 7.84048L3.50434 7.85293L6.68981 8.97104C6.84284 9.02475 6.94947 9.16168 6.96619 9.32041L6.96848 9.36419L6.96834 10.172L7.00158 10.1713C7.5612 10.1509 7.9594 10.0909 8.18268 10.0005L8.24138 9.97405L9.56487 9.28987L9.81199 9.16555L10.1252 9.01223L10.3177 8.92108L10.4976 8.83883L10.6653 8.76552L10.8212 8.70122L10.9657 8.64596C11.2202 8.55297 11.419 8.50582 11.5725 8.50582C12.1804 8.50582 12.5391 8.90753 12.5391 9.53842C12.5391 9.72904 12.4098 9.89534 12.225 9.94227L12.1133 9.97126L11.9004 10.03C11.0436 10.2766 10.5612 10.5447 10.4617 10.7663C10.3512 11.0124 10.1486 11.2507 9.8106 11.5713L9.59501 11.7709L9.14582 12.1794L9.06464 12.2568L9.01724 12.3047L8.97085 12.3531C8.91509 12.4117 8.87218 12.4617 8.8425 12.5021L8.82273 12.5305C8.81966 12.5353 8.81786 12.5378 8.81682 12.5375L8.81771 12.6061C8.82159 12.7172 8.83104 12.8362 8.8445 12.9469L8.86284 13.0767L8.86867 13.1114L8.93875 13.1308C9.12298 13.1782 9.30225 13.2059 9.46105 13.2055C9.62977 13.2051 9.75456 13.1727 9.82899 13.116C9.89377 13.0666 9.97194 12.999 10.0611 12.916L10.1732 12.8091L10.295 12.6884L10.4939 12.4837L10.6358 12.3331L10.7093 12.2539C10.7982 12.1576 10.8862 12.0606 10.9717 11.9651L11.2563 11.6416C11.3347 11.5503 11.448 11.4979 11.5669 11.4963L11.8295 11.5145C11.9978 11.5251 12.1661 11.5313 12.3211 11.5311L12.4272 11.5295L12.5245 11.5257L12.6816 11.5152L12.7819 11.5056C12.8415 11.4631 12.8801 11.3999 12.899 11.2954L12.9059 11.248C12.9636 10.7428 13.689 10.7682 13.7343 11.2475L13.7365 11.2953L13.7363 11.652L14.8381 12.5877C15.0017 12.7268 15.0313 12.9651 14.9134 13.1388L14.8858 13.175C14.7468 13.3387 14.5085 13.3683 14.3347 13.2504L14.2985 13.2228L13.152 12.2487L13.1342 12.2575C12.9583 12.3333 12.7257 12.3596 12.4103 12.3638L12.3223 12.3644C12.2057 12.3646 12.0844 12.3616 11.9618 12.3562L11.749 12.3444L11.7226 12.3745C11.6376 12.4709 11.549 12.57 11.4585 12.6696L11.3216 12.8191L11.1527 13.0001C11.1253 13.0292 11.0982 13.0577 11.0714 13.0857L10.9154 13.2465C10.6881 13.4769 10.4919 13.6585 10.3342 13.7787C10.095 13.961 9.79818 14.038 9.46309 14.0388C9.26394 14.0393 9.06006 14.013 8.85458 13.9674L8.70682 13.9314L8.42775 13.8467C8.16261 13.7677 8.04716 13.4614 8.00422 13.0264L7.99297 12.8849C7.99147 12.8606 7.99015 12.8361 7.98899 12.8111L7.98397 12.6581L7.98264 12.4663L7.98478 12.4063C7.99285 12.2713 8.02488 12.1685 8.12842 12.0322L8.17731 11.9715C8.18623 11.961 8.19556 11.9503 8.2053 11.9393L8.26888 11.8703L8.34331 11.7944L8.4294 11.7103L8.52799 11.6169L8.70114 11.4569L9.16278 11.0364L9.28563 10.92C9.3048 10.9014 9.32332 10.8833 9.34119 10.8656L9.44071 10.7642C9.56313 10.6355 9.64468 10.5328 9.6873 10.4536L9.70147 10.425C9.76883 10.275 9.8729 10.1366 10.0139 10.0081L10.045 9.98069L9.90362 10.0526L8.72981 10.6607L8.57566 10.738C8.22795 10.9007 7.69011 10.986 6.94293 11.0071L6.6861 11.0118C6.64199 11.0121 6.59723 11.0123 6.55181 11.0123C6.33608 11.0123 6.15864 10.8484 6.1373 10.6383L6.13515 10.5957L6.135 9.65936L3.57234 8.75969L3.23884 9.41606C3.14149 9.60751 2.91649 9.69147 2.72015 9.61701L2.67858 9.59861C2.48713 9.50126 2.40317 9.27626 2.47763 9.07992L2.49603 9.03834L2.99494 8.05722Z"/><path id="Path 11" fill="#000638" d="M21.3623 6.90612C21.559 6.83408 21.776 6.91957 21.8728 7.10036L21.8916 7.14053L23.1766 10.3029C23.2632 10.5161 23.1606 10.7592 22.9474 10.8458C22.7475 10.927 22.5214 10.8419 22.4226 10.6553L22.4045 10.6166L21.2707 7.82671L18.6864 8.77338L18.6776 8.88603L18.6733 9.006L18.6743 9.0326L18.6751 9.03671L18.7173 9.11561L18.8062 9.27153L18.9255 9.47163C18.9404 9.49628 18.9559 9.52173 18.9719 9.54797C19.1868 9.90007 18.8165 10.3077 18.4531 10.1487L18.4169 10.1309L17.8374 9.81505L12.3547 9.81535C12.1389 9.81535 11.9615 9.65139 11.9401 9.44128L11.938 9.39868C11.938 9.18295 12.1019 9.0055 12.3121 8.98417L12.3547 8.98202L17.843 8.98171L17.843 8.9754C17.8413 8.83979 17.8542 8.68323 17.879 8.50096L17.8924 8.40767C17.9128 8.2721 17.9983 8.15628 18.1195 8.09629L18.1612 8.07841L21.3623 6.90612Z"/><path id="Path" fill="#000638" d="M2.05276 11.9752C2.26375 12.067 2.36032 12.3125 2.26846 12.5235L2.0486 13.0355L1.86233 13.4832L1.7671 13.7192L1.63659 14.0552L1.59444 14.1689L1.55812 14.2703L1.51473 14.3987L1.49328 14.4682L1.47788 14.5246L1.46859 14.5674C1.46756 14.5735 1.46678 14.5789 1.46626 14.5838L1.46548 14.5966C1.46548 14.6631 1.46075 14.7128 1.44767 14.7796L1.42771 14.8701L1.40011 14.9854L1.39178 15.0265L1.38646 15.0637L1.39406 15.0714C1.42872 15.1021 1.50235 15.1418 1.62453 15.1836L1.6799 15.2017C1.76952 15.2295 1.86309 15.2566 1.9609 15.2832L2.15573 15.3339L2.3927 15.3885L2.9434 15.5071L3.6967 15.6676L3.90056 15.7147L3.9441 15.7266C4.07442 15.7671 4.28165 15.6574 4.43049 15.4366L4.47515 15.3639L4.5259 15.2709L4.61587 15.0958L4.76386 14.7955L5.03659 14.2246L5.17865 13.922L5.40302 13.4349L5.65179 12.9017C5.88151 12.4112 6.60107 12.7295 6.42504 13.211L6.40878 13.2504L6.40712 13.2527L6.11377 13.8893L6.00162 14.1382L5.8531 14.4756L5.76725 14.6766L5.69193 14.8585L5.62988 15.014L5.57964 15.1462C5.57206 15.1667 5.56488 15.1865 5.5581 15.2054L5.52223 15.3101L5.49606 15.3956L5.48679 15.4294L5.49319 15.4649C5.50177 15.5356 5.49234 15.6091 5.46287 15.678L5.44277 15.7188C5.37515 15.8392 5.25666 15.913 5.12935 15.9284L5.10203 15.9307C4.77844 16.3916 4.26352 16.6629 3.75956 16.5398L3.68086 16.5179L3.49731 16.4762L2.40538 16.2447L2.06171 16.1681L1.90469 16.1301C1.73834 16.0877 1.5814 16.0437 1.4326 15.9975C0.806472 15.8029 0.516058 15.46 0.557611 14.9839C0.56338 14.9178 0.572607 14.8648 0.590171 14.7888L0.619848 14.6648L0.630556 14.6128L0.63215 14.5966C0.63215 14.5604 0.636196 14.5178 0.64437 14.4684L0.659738 14.3892C0.662818 14.3751 0.666159 14.3606 0.669762 14.3457L0.694533 14.2507L0.725651 14.1449L0.763175 14.028L0.80717 13.8997L0.857695 13.7598L0.978584 13.4441L1.04907 13.2678L1.21044 12.8769L1.39941 12.4332L1.5044 12.1909C1.59626 11.9799 1.84177 11.8833 2.05276 11.9752Z"/><path id="Path 13" fill="#000638" d="M18.9157 14.3083L18.9099 14.3745C18.8981 14.4795 18.8789 14.5845 18.8524 14.6894C18.7335 15.1608 18.518 15.4523 18.1198 15.5921L18.0534 15.6133C18.0535 15.6313 18.0544 15.6492 18.0564 15.6695L18.0663 15.7402L18.0828 15.8308C18.1844 16.3579 18.1323 16.6622 17.6944 16.9493C17.2253 17.2569 16.8407 17.4238 16.5027 17.3772L16.4554 17.3689L16.44 17.4217C16.383 17.6015 16.3087 17.7679 16.2167 17.9204L16.1595 18.0102C15.9176 18.3691 15.6146 18.4763 15.2326 18.3836L15.2127 18.3779L15.2122 18.3816C15.1732 18.5969 15.0493 18.7884 14.8445 18.9353L14.7916 18.9711C14.5029 19.1556 14.2395 19.2296 13.9577 19.1995L13.93 19.1956L13.9243 19.2187C13.8404 19.5115 13.5626 19.7235 13.1938 19.8829L13.1188 19.9141C12.9648 19.9759 12.8103 20.0205 12.6813 20.0383C12.5897 20.0509 12.5066 20.0518 12.4229 20.0329C12.2652 19.9973 12.1254 19.8919 12.0758 19.7247L12.074 19.7173L12.0367 19.6723L11.9672 19.5953L11.8769 19.5014L11.7836 19.4083L11.6735 19.3018L11.5493 19.1842L11.3362 18.9873L11.0912 18.7659L10.8144 18.52C10.6418 18.3678 10.6253 18.1045 10.7775 17.9319C10.9297 17.7593 11.193 17.7428 11.3656 17.895L11.8607 18.3354L12.0656 18.5218L12.2439 18.6882L12.3488 18.789L12.4429 18.8824L12.5266 18.9689L12.6005 19.049C12.612 19.0619 12.6232 19.0745 12.6339 19.0869L12.6937 19.1586L12.708 19.1769L12.7615 19.1587L12.8087 19.1407C12.8922 19.1072 12.9711 19.0679 13.0346 19.0285L13.047 19.0199L13.0215 18.9874C12.9992 18.96 12.9737 18.9302 12.9452 18.8984L12.8502 18.7965L12.795 18.7403L12.672 18.6201L12.5323 18.4899L12.3758 18.3496L12.2026 18.1992L11.9894 18.0196L11.7802 17.8503L11.5785 17.685C11.1527 17.3344 11.6727 16.6935 12.1035 17.0379L12.3419 17.2298L12.5787 17.4239L12.9112 17.686L13.1426 17.8624L13.2796 17.9635L13.4024 18.0513L13.5111 18.1256L13.6055 18.1865C13.62 18.1955 13.6339 18.204 13.6473 18.2118L13.7162 18.2504C14.001 18.3988 14.1071 18.4095 14.3002 18.2952L14.343 18.2688C14.3782 18.2464 14.3942 18.2374 14.3953 18.2199L14.393 18.2036L12.802 16.5356C12.4312 16.147 12.9842 15.5918 13.3707 15.9277L13.4001 15.9553L13.6694 16.2249L13.8385 16.3901L13.9991 16.5438C14.0252 16.5685 14.0509 16.5926 14.0762 16.6163L14.224 16.7525L14.363 16.877L14.4934 16.9898C14.5144 17.0077 14.535 17.025 14.5553 17.0418L14.6724 17.137L14.7806 17.2203C14.8497 17.272 14.9129 17.3157 14.97 17.3514C15.1835 17.4852 15.3312 17.5542 15.4183 17.5714L15.4495 17.5763L15.4583 17.5604L15.4684 17.5445C15.5382 17.441 15.5953 17.3229 15.6393 17.1893L15.6587 17.1246L13.6921 14.9336C13.3445 14.5465 13.8735 14.014 14.2587 14.3264L14.2896 14.3537L16.3429 16.2985L16.5986 16.5328C16.6362 16.5658 16.8277 16.5125 17.1746 16.2929L17.2645 16.2346C17.2909 16.2163 17.2995 16.2027 17.2944 16.1554L17.2869 16.1057L17.2645 15.9885C17.242 15.8713 17.2291 15.7921 17.2236 15.7131L17.2207 15.6499L17.2149 15.6465C17.192 15.6183 17.1561 15.5845 17.1085 15.5464L17.0482 15.5007L16.8125 15.3377C16.7847 15.3174 16.7611 15.2986 16.7383 15.2773C16.6817 15.2247 16.6398 15.1718 16.6101 15.0828C16.5386 14.8686 16.6439 14.6484 16.8374 14.5592C16.912 14.5248 16.9741 14.5164 17.0456 14.5164C17.1394 14.5164 17.2261 14.5354 17.3171 14.5696L17.4164 14.6114L17.5001 14.6531L17.6929 14.7548C17.7043 14.7605 17.7149 14.7656 17.7249 14.7703L17.7789 14.7936L17.8134 14.8064C17.824 14.8106 17.825 14.812 17.817 14.8144C17.9404 14.7781 17.9849 14.7214 18.0444 14.4855C18.0902 14.3041 18.1021 14.1258 18.0809 13.9482C18.0533 13.7174 18.2192 13.5119 18.4446 13.485L18.4875 13.4821L19.0004 13.4733L18.9146 12.39C18.8752 11.8917 19.5746 11.768 19.7235 12.2187L19.7358 12.2627L19.8047 12.5509C19.8161 12.5976 19.8276 12.6436 19.839 12.6889L19.9075 12.9526C19.9416 13.0804 19.9757 13.2019 20.0096 13.3173L20.0772 13.5398C20.1895 13.8967 20.3002 14.1846 20.4082 14.4021L20.4706 14.5242C20.6892 14.9391 20.8101 14.9992 21.1859 14.9992C21.2127 14.9992 21.2447 14.9967 21.2818 14.9917L21.3627 14.9783L21.4571 14.9582C21.4739 14.9543 21.4913 14.9501 21.5092 14.9456L21.6234 14.9155C21.6435 14.91 21.6642 14.9041 21.6854 14.898L21.8191 14.858L21.9656 14.8113L22.1248 14.7581L22.2966 14.6983L22.5773 14.5962L22.7797 14.52L23.1057 14.3934L23.3227 14.3066L23.3229 13.4777C23.3229 13.2619 23.4869 13.0845 23.697 13.0632L23.7396 13.061C23.9553 13.061 24.1328 13.225 24.1541 13.4351L24.1562 13.4777V14.5874C24.1562 14.7565 24.054 14.9089 23.8976 14.973L23.5042 15.1321L23.2583 15.229L23.0254 15.3187L22.8052 15.4011L22.5977 15.4762L22.4028 15.5441L22.2201 15.6048L22.0497 15.6583L21.8913 15.7047L21.7449 15.7438C21.5106 15.8031 21.3253 15.8325 21.1859 15.8325C20.4473 15.8325 20.059 15.5721 19.6619 14.7728C19.6091 14.6665 19.5566 14.5484 19.5044 14.4184L19.4577 14.2989L18.9157 14.3083Z"/><path id="Path 14" fill="#000638" d="M5.34095 14.3845C5.43744 14.1915 5.66344 14.1061 5.86091 14.181L5.89997 14.1981L7.16493 14.8306C7.37075 14.9335 7.45418 15.1838 7.35127 15.3896C7.25479 15.5826 7.02878 15.668 6.83132 15.5931L6.79225 15.576L5.52729 14.9435C5.32147 14.8406 5.23804 14.5903 5.34095 14.3845Z"/><path id="Path 15" fill="#000638" d="M16.9119 11.9845C17.1177 11.8816 17.368 11.965 17.4709 12.1708C17.5674 12.3638 17.5001 12.5958 17.3217 12.7089L17.2846 12.7299L16.0196 13.3623C15.8138 13.4653 15.5635 13.3818 15.4606 13.176C15.3641 12.983 15.4314 12.751 15.6098 12.638L15.6469 12.617L16.9119 11.9845Z"/><path id="Oval_2" fill="#000638" fill-rule="evenodd" d="M6.24609 15.8358C6.24609 15.2781 6.61472 14.7866 7.13712 14.7866C7.65952 14.7866 8.02815 15.2781 8.02815 15.8358C8.02815 16.3934 7.65952 16.8849 7.13712 16.8849C6.61472 16.8849 6.24609 16.3934 6.24609 15.8358ZM7.14518 15.6309L7.13727 15.62C7.1371 15.62 7.13625 15.6209 7.13488 15.6227L7.12162 15.6446C7.10452 15.6772 7.07958 15.7418 7.07958 15.8358C7.07958 15.9298 7.10452 15.9943 7.12162 16.027L7.13488 16.0488L7.13727 16.0516L7.14518 16.0406L7.16197 16.008C7.17764 15.972 7.19496 15.9141 7.19496 15.8358C7.19496 15.7261 7.16101 15.6565 7.14518 15.6309Z" clip-rule="evenodd"/><path id="Oval Copy 3" fill="#000638" fill-rule="evenodd" d="M9.0918 18.0494C9.0918 17.47 9.56151 17.0002 10.1409 17.0002C10.7204 17.0002 11.1901 17.47 11.1901 18.0494C11.1901 18.6288 10.7204 19.0985 10.1409 19.0985C9.56151 19.0985 9.0918 18.6288 9.0918 18.0494ZM10.3568 18.0494C10.3568 17.9302 10.2601 17.8336 10.1409 17.8336C10.0218 17.8336 9.92513 17.9302 9.92513 18.0494C9.92513 18.1686 10.0218 18.2652 10.1409 18.2652C10.2601 18.2652 10.3568 18.1686 10.3568 18.0494Z" clip-rule="evenodd"/><path id="Oval Copy 4" fill="#000638" fill-rule="evenodd" d="M10.3569 18.84C10.3569 18.3176 10.8484 17.949 11.4061 17.949C11.9637 17.949 12.4552 18.3176 12.4552 18.84C12.4552 19.3624 11.9637 19.731 11.4061 19.731C10.8484 19.731 10.3569 19.3624 10.3569 18.84ZM11.6109 18.8321C11.5854 18.8163 11.5157 18.7823 11.4061 18.7823C11.2964 18.7823 11.2268 18.8163 11.2013 18.8321L11.1903 18.84C11.1903 18.8402 11.1912 18.841 11.193 18.8424L11.2149 18.8557C11.2475 18.8727 11.3121 18.8977 11.4061 18.8977C11.5157 18.8977 11.5854 18.8637 11.6109 18.8479L11.6219 18.84L11.6109 18.8321Z" clip-rule="evenodd"/><path id="Oval Copy 2" fill="#000638" fill-rule="evenodd" d="M7.19482 16.7845C7.19482 16.0304 7.80613 15.4191 8.56021 15.4191C9.31429 15.4191 9.92559 16.0304 9.92559 16.7845C9.92559 17.5385 9.31429 18.1498 8.56021 18.1498C7.80613 18.1498 7.19482 17.5385 7.19482 16.7845ZM9.09226 16.7845C9.09226 16.4906 8.85405 16.2524 8.56021 16.2524C8.26636 16.2524 8.02816 16.4906 8.02816 16.7845C8.02816 17.0783 8.26636 17.3165 8.56021 17.3165C8.85405 17.3165 9.09226 17.0783 9.09226 16.7845Z" clip-rule="evenodd"/></g></g></svg>

<svg xmlns="http://www.w3.org/2000/svg" width="25" height="25" fill="none" viewBox="0 0 25 25"><path fill="#000638" d="M22 12.89a.891.891 0 1 0 0 1.781.891.891 0 0 0 0-1.782"/><circle cx="17.25" cy="7.25" r="6.25" fill="#CCE1F8"/><path fill="#000638" d="M2.995 8.057a.42.42 0 0 1 .467-.217l.042.013L6.69 8.97c.153.054.26.19.276.35l.002.043v.808h.034c.56-.021.957-.081 1.18-.171l.06-.027 1.323-.684.247-.124.313-.154.193-.09.18-.083.167-.073.156-.065.145-.055c.254-.093.453-.14.607-.14.607 0 .966.402.966 1.032 0 .191-.13.357-.314.404l-.112.03-.213.058c-.856.247-1.339.515-1.438.736-.11.246-.313.485-.651.805l-.216.2-.45.408-.08.078-.048.048-.046.048a2 2 0 0 0-.129.15l-.02.027-.005.008v.068c.005.111.014.23.027.34l.019.13.006.035.07.02c.184.047.363.075.522.075.169 0 .294-.033.368-.09a3 3 0 0 0 .232-.2l.112-.107.122-.12.199-.205.142-.15.073-.08q.135-.145.263-.289l.284-.323a.42.42 0 0 1 .31-.146l.263.018c.169.011.337.017.492.017l.106-.002.098-.003.157-.01.1-.01c.06-.043.098-.106.117-.21l.007-.048c.058-.505.783-.48.828 0l.002.047v.357l1.102.936a.415.415 0 0 1 .075.55l-.027.037a.417.417 0 0 1-.551.075l-.037-.027-1.146-.974-.018.008c-.176.076-.408.103-.724.107h-.088q-.175 0-.36-.008l-.213-.012-.026.03-.264.296-.137.15-.17.18-.08.086-.157.16a6 6 0 0 1-.58.533c-.24.182-.537.259-.872.26q-.3-.002-.608-.072l-.148-.036-.28-.084c-.264-.08-.38-.386-.423-.82l-.011-.142-.004-.074-.005-.153-.001-.192.002-.06a.62.62 0 0 1 .143-.374l.05-.06.027-.033.064-.069.074-.076.086-.084.099-.093.173-.16.462-.42.123-.117.055-.054.1-.102q.183-.192.246-.31l.014-.029q.102-.224.313-.417l.031-.027-.141.072-1.174.608-.154.077c-.348.163-.886.248-1.633.27l-.257.004h-.134a.417.417 0 0 1-.415-.374l-.002-.042v-.937l-2.563-.9-.333.657a.417.417 0 0 1-.519.201l-.041-.018a.417.417 0 0 1-.201-.52l.018-.04z"/><path fill="#000638" d="M21.362 6.906a.42.42 0 0 1 .51.194l.02.04 1.285 3.163a.417.417 0 0 1-.754.352l-.018-.038-1.134-2.79-2.585.946-.008.113-.005.12.001.027.001.004.042.079.09.156.119.2.046.076c.215.352-.155.76-.519.6l-.036-.017-.58-.316h-5.482a.417.417 0 0 1-.415-.374l-.002-.042c0-.216.164-.393.374-.415l.043-.002h5.488v-.007a3 3 0 0 1 .036-.474l.013-.093a.42.42 0 0 1 .227-.312l.042-.018zM2.053 11.975a.417.417 0 0 1 .215.549l-.22.512-.186.447-.095.236-.13.336-.043.114-.036.101-.043.129-.022.07-.015.056-.01.042-.002.017v.013a1 1 0 0 1-.018.183l-.02.09-.028.115-.008.042-.006.037.008.007c.035.031.108.07.23.113l.056.018q.135.041.28.081l.196.05.237.056.55.118.754.16.204.048.043.012c.13.04.338-.07.486-.29l.045-.073.05-.093.09-.175.149-.3.273-.571.142-.303.224-.487.249-.533c.23-.49.95-.172.773.309l-.016.04-.002.002-.293.636-.112.25-.149.337-.086.2-.075.182-.062.156-.05.132-.022.06-.036.104-.026.086-.01.033.007.036c.009.07 0 .144-.03.213l-.02.04a.42.42 0 0 1-.314.21l-.027.003c-.324.46-.838.732-1.342.609l-.08-.022-.183-.042-1.092-.231-.343-.077-.157-.038a10 10 0 0 1-.472-.132c-.627-.195-.917-.538-.875-1.014.005-.066.015-.12.032-.195l.03-.124.01-.052.002-.016q0-.056.012-.129l.016-.079.01-.043.025-.095.03-.106.038-.117.044-.128.05-.14.122-.316.07-.176.161-.391.19-.444.104-.242a.417.417 0 0 1 .549-.216m16.863 2.333-.006.066q-.018.158-.058.315c-.119.472-.334.763-.732.903l-.067.021.003.056.01.071.017.09c.101.528.05.832-.389 1.12-.469.307-.853.474-1.191.427l-.048-.008-.015.053q-.085.27-.223.498l-.057.09c-.242.36-.545.466-.927.374l-.02-.006v.004a.87.87 0 0 1-.368.553l-.053.036c-.29.185-.553.259-.834.229l-.028-.004-.006.023c-.084.293-.361.505-.73.664l-.075.031a2 2 0 0 1-.438.124.7.7 0 0 1-.258-.005.45.45 0 0 1-.347-.308l-.002-.008-.037-.045-.07-.077-.09-.094-.093-.093-.11-.106-.125-.118-.213-.197-.245-.221-.277-.246a.417.417 0 1 1 .552-.625l.495.44.205.187.178.166.105.101.094.093.084.087.074.08.033.038.06.072.014.018.053-.018.048-.018c.083-.034.162-.073.226-.112l.012-.01-.026-.032-.076-.089-.095-.101-.055-.057-.123-.12-.14-.13-.156-.14-.173-.15-.214-.18-.209-.17-.201-.165c-.426-.35.094-.991.524-.647l.239.192.237.194.332.262.232.176.137.102.122.087.11.075.093.06.042.026.07.038c.284.149.39.16.583.045l.043-.026c.035-.023.051-.032.052-.05l-.002-.015-1.591-1.668c-.37-.389.182-.944.569-.608l.03.027.268.27.17.165.16.154.077.072.148.137.139.124.13.113.062.052.117.095.109.083q.104.078.189.131c.213.134.361.203.448.22l.032.005.008-.016.01-.015q.105-.155.171-.356l.02-.064-1.967-2.191c-.348-.387.181-.92.567-.608l.03.028 2.054 1.945.256.234c.037.033.229-.02.576-.24l.09-.058c.026-.019.034-.032.03-.08l-.008-.05-.022-.117a2 2 0 0 1-.041-.275l-.003-.063-.006-.004a.7.7 0 0 0-.107-.1l-.06-.045-.235-.163a1 1 0 0 1-.075-.06.43.43 0 0 1-.128-.195.426.426 0 0 1 .227-.524.46.46 0 0 1 .209-.043c.093 0 .18.02.271.054l.1.041.083.042.193.102.032.015.054.024.034.012q.016.006.004.008c.123-.036.168-.093.227-.328q.069-.272.037-.538a.417.417 0 0 1 .364-.463l.043-.003.512-.009-.085-1.083c-.04-.498.66-.622.809-.171l.012.044.069.288.034.138.069.264q.051.191.102.364l.067.223q.168.536.331.862l.063.122c.218.415.34.475.715.475a1 1 0 0 0 .096-.007l.08-.014.095-.02.052-.012.114-.03.062-.018.134-.04.147-.047.159-.053.172-.06.28-.102.203-.076.326-.127.217-.086v-.83c0-.215.164-.393.374-.414l.043-.002c.215 0 .393.164.414.374l.002.043v1.11c0 .169-.102.32-.258.385l-.394.16-.246.096-.233.09-.22.082-.207.075-.195.068-.183.06-.17.054-.159.047-.146.039q-.35.089-.56.088c-.738 0-1.126-.26-1.523-1.06a5 5 0 0 1-.158-.354l-.046-.12z"/><path fill="#000638" d="M5.341 14.385a.417.417 0 0 1 .52-.204l.039.017 1.265.633a.417.417 0 0 1-.334.762l-.039-.017-1.265-.633a.417.417 0 0 1-.186-.559m11.571-2.399a.417.417 0 0 1 .41.724l-.037.02-1.265.633a.417.417 0 0 1-.41-.724l.037-.021z"/><path fill="#000638" fill-rule="evenodd" d="M6.246 15.836c0-.558.369-1.05.891-1.05.523 0 .891.492.891 1.05 0 .557-.368 1.049-.89 1.049-.523 0-.892-.492-.892-1.05m.9-.205-.009-.011-.002.003-.013.022a.4.4 0 0 0-.042.19c0 .095.025.16.042.192l.013.022.002.003.008-.011.017-.033a.4.4 0 0 0 .033-.172c0-.11-.034-.18-.05-.205m1.947 2.42a1.05 1.05 0 1 1 2.098 0 1.05 1.05 0 0 1-2.098 0m1.265 0a.216.216 0 1 0-.432 0 .216.216 0 0 0 .432 0" clip-rule="evenodd"/><path fill="#000638" fill-rule="evenodd" d="M10.357 18.84c0-.522.491-.891 1.05-.891.557 0 1.048.369 1.048.891s-.491.891-1.049.891-1.05-.369-1.05-.891m1.254-.008a.4.4 0 0 0-.205-.05c-.11 0-.18.034-.205.05l-.01.008.002.002.022.014a.4.4 0 0 0 .191.042c.11 0 .18-.034.205-.05l.01-.008zm-4.415-2.047a1.365 1.365 0 1 1 2.73 0 1.365 1.365 0 0 1-2.73 0m1.897 0a.532.532 0 1 0-1.064 0 .532.532 0 0 0 1.064 0" clip-rule="evenodd"/></svg>
